react/assets/icons/presentation.svg

<svg width="48" height="48" viewBox="0 0 24 24" fill="none" xmlns="http://www.w3.org/2000/svg" aria-labelledby="presentationIconTitle" stroke-linecap="square"><path d="M6 8h12v7H6zM6 5h6m6 0h-6m0 0V4M6 18h2m10 0h-2m-4 0v3m0-3H8m4 0h4m-8 0l-2 3m10-3l2 3"/></svg>

<svg width="48px" height="48px" viewBox="0 0 24 24" fill="none" xmlns="http://www.w3.org/2000/svg" aria-labelledby="presentationIconTitle" stroke-linecap="square" stroke-linejoin="miter"> <title id="presentationIconTitle">Presentation</title> <rect x="6" y="8" width="12" height="7"/> <path d="M6 5H12M18 5H12M12 5V4"/> <path d="M6 18H8M18 18H16M12 18V21M12 18H8M12 18H16M8 18L6 21M16 18L18 21"/> </svg>
